X:1726
T:Dutch Skipper
O:england
M:C
K:D
(3ABc|\
d4 c3d| "tr"B4 A2Bc| d2c2 d2e2| f4 d3e| fede "tr"e3d| d6::
de|\
f2f2 gfed| c6 cd| e2a^g fedc| B4 c3d| e4 A3B| c"tr"BAB B3A| A6::
de|\
f2f2 (gf)(ed)| g6 fg| a2gf g2a2| b4 f3g| a4 d3e| fede "tr"e3d| d4:|


